X: 11381
Q: "Strathspey style."
M: C
L: 1/16
K: Eb
E2 |\
g2 |\
{d}e3gBg3 eg3b3g | {g}a3g{g}f3e dB3Bg3 |
eg3B3g efga bg3 | {g}a3f (ed).c.B {d}e4 e2f2 |\
ge3BG3 eB3GE3 | {G}A3GF3E DB,3 B,4 |\


